X:1
T:Wither must I wander
T:VII. Wither must I wander
T:Songs of Travel
T:Ralph Vaughan Williams
T:Robert Louis Stevenson
C:Ralph Vaughan Williams
%%score 1 { ( 2 4 ) | ( 3 5 ) }
L:1/8
Q:1/4=65
M:4/4
K:Eb
V:1 treble nm="Voice"
V:2 treble nm="Piano"
V:4 treble 
V:3 treble 
V:5 treble 
V:1
"^Andante" z8 | z8 ||!mf![Q:1/4=55]"^tranquillo" (E2 F G F E (CD)) | (E F G B A2 G2) | %4
w: ||Home no more home to me, _|whi- ther must I wan- der?|
 (F2 G F E2 C D | (EF) G E F4) | (E2 F G F E (CD) |!<(! E F G!<)! B!>(! e4 | B2)!>)! z2 (F2 G F | %9
w: Hun- ger my dri- ver, I|go _ where I must.|cold blows the win- ter wind *|o- ver hill and hea-|ther Thick drives the|
 E2 C!>(! D E C C3/2!>)! B,/ | C4) z4 |!f!"^risoluto" (B2 (GB) c B A c | (ed) c B G2 E) (E | %13
w: rain and my roof is in the|dust.|Lov'd of * wise men was the|shade * of my roof- tree, The|
 B2 G B c2 A c |!ff! e d c3/2"^poco rit"[Q:1/4=60]"^T" B/!>(! B4)!>)! | %15
w: true word of wel- come was|spo- ken in the door:|
[Q:1/4=65]"^a tempo"!p![Q:1/4=65]"^a tempo" (E2 F G (FE) C D | E F!<(! G B!<)!!>(! e4!>)! | %17
w: Dear days of old _ with the|fa- ces in the fire-|
 B2) z2!pp! (F2 G F | E2 (CD) E C!>(! C3/2!>)! D/ | C4) z4 | z8 ||!mf! (E F G2 F E (CD) | %22
w: light; Kind folks of|old, you * come a- gain no|more.||Home was home then, my dear, _|
 E F G B A2 G2) | (F F (GF) E C (CD) | E F G E F4) | (E2 F G F E!<(! (CD) | E F!<)! G B e4 | %27
w: full of kind- ly fa- ces,|Home was home _ then, my dear, _|hap- py for the child.|Fire and the win- dows bright _|gli- tered on the moor-|
 B2) z2 F2 (G F | E2 C D"^dim." E C C3/2 B,/ | C4) z4 |!f!"^risoluto" (B2 (GB) c B A c | %31
w: land; Song, tune- ful|song, built a pa- lace in the|wild.|Now when _ day dawns on the|
 (ed) c B G2 E2) | (B2 G B c2!<(! A!<)! c |!ff! e d c3/2[Q:1/4=60]"^T" B/"^poco rit" B4) | %34
w: brow _ of the moor- land,|Lone stands the house and the|chim- ney- stone is cold.|
[Q:1/4=65]"^a tempo"!p! (E2 F G (FE) C D | E!<(! F G!<)! B!>(! e4!>)! | B2) z (B F2 G F | %37
w: Lone let it stand * now the|friends are all de- part-|ed, The kind hearts, the|
 E2 C) (D E C C3/2 B,/ | C4) z4 | z8 ||!pp! (E F G2 F E (CD) | E F G B A2 G2) | (F F G F E E (CD) | %43
w: true hearts, that loved the place of|old.||Spring shall come, come a- gain, _|call- ing up the moor- fowl,|Spring shall bring the sun and rain, _|
 E F G E (G2 F2)) | (E2 F G F E (CD) |!<(! E F G B!<)!!>(! e4!>)! | B2) z2 (F2 G F | %47
w: bring the bees and flowers; _|red shall the hea- ther bloom _|o- ver hill and val-|ley, Soft flow the|
 E2 C D!>(! E C C3/2!>)! B,/ | C4) z4 | (B =A (GB) (cB) _A c | (ed) c B G2 E2) | %51
w: stream through the e- ven flow- ing|hours.|Fair the day * shine * as it|shone * on my child- hood;|
 (B2!<(! G B c2!<)! A c |!ff! e d c3/2[Q:1/4=60]"^T" B/"^poco rit"!>(! B4)!>)! | %53
w: Fair shine the day on the|house with o- pen door.|
[Q:1/4=65]"^a tempo"!pp![Q:1/4=65]"^a tempo" (E2 F G (FE) C D |!<(! E F G!<)! B!>(! e4!>)! | %55
w: Birds come and cry * there and|twit- ter in the chim-|
 B2) z B (F2 G F | %56
w: ney But I go for|
"^molto rall."[Q:1/4=60]"^T" E2 C[Q:1/4=50]"^T" D E[Q:1/4=45]"^T"!>(! C C3/2 B,/!>)! | %57
w: e- ver and come a- gain no|
 C4) !fermata!z4 |] %58
w: more.|
V:2
!f! [ce]2!>(! ([df][eg] [ce][Ac][EG]>[DF])!>)! | ([CEG]4!p! [F,B,F]4) || %2
!p! ([G,E]2"_legato" [A,F][B,G] [A,F][G,E]CD) |!<(! ([G,E][A,F][EG]!<)![FB]!>(! A2 G2)!>)! | %4
 (F2 GF E2 CD | EFGE E2 D2) | ([G,E]2 [DF][EG] [DF][CE] C[B,D] | %7
!<(! [B,F][A,DF] [G,EG][B,FB]!<)!!f!!>(! [B,B]2 [A,A]2- | [A,A]2 [G,G]2)!>)!!p! (F2 GF | %9
!>(! [Cc])[B,B]- [B,B][A,A] [G,CG]2 [F,CF]2!>)! |!pp!!<(! ([E,CE]2 CD [CE][DF][EG]!<)![F=A]) | %11
!f! !arpeggio![DGB]2 z2 ([Ac][GB][FA][Ac] | [EGe]) z [CAc][B,GB] [=B,DG]2 [CE]2 | %13
 !arpeggio![B,EGB]2 z2 [CEAc]2 z2 | %14
!<(! [EG][FB]!<)!!ff! B=A"^poco rall."!>(! [DFB]2 [B,DG][_A,F]!>)! | %15
 ([G,E]2 [DF][EG] [DF][CE] C[B,D] | [B,E][A,DF]!<(! [G,EG][B,FB]!<)!!>(! [B,B]2 [A,A]2- | %17
 [A,A]2!>)! [G,G]2)!pp! F2 GF | E2 ([A,CA]2 [G,CG]2 [F,CF]2) | %19
!f! ([ce]2!>(! [df][eg] [ce][Ac] [EG]>[DF]!>)! | (([CEG]4 [F,B,F]4))) || %21
!p! ([G,E][A,F] [B,G]2 [A,F][G,E]CD | [G,E][A,F][EG][FB] A2 G2) | (F2 GF E2 CD | E)FGE E2 D2 | %25
 ([G,E]2 [DF][EG] [DF][CE] C[B,D] |!<(! [B,E][A,DF] [G,EG][B,FB] [B,B]2 [A,A]2-!<)! | %27
!>(! [A,A]2 [G,G]2)!>)! F2 GF | [Cc][B,B]-[B,B][A,A] [G,CG]2 [F,CF]2 | %29
!pp! ([G,CE]2 CD [CE][DF][EG][F=A]) | !arpeggio![DGB]2 z2 ([Ac][GB][FA][Ac] | %31
 [EGe]) z ([CAc][DGB] [=B,DG]2 [CE]2 | !arpeggio![B,EGB]2) z2 [CEAc]2 z2 | %33
!<(! [EG][FB]!<)!!ff! B=A"_poco rit"!>(! [DFB]2 [B,DG][_A,F]!>)! | %34
!pp! ([G,E]2 [DF][EG] [DF][CE] C[B,D] | [B,E]!<(![A,DF] [G,EG][B,FB]!<)! [B,B]2 [A,A]2- | %36
!>(! [A,A]2!>)! [G,G]2) F2 GF |"_colla voce" E2!>(! ([A,CA]2 [G,CG]2 [F,CF]2)!>)! | %38
!f! ([ce]2 [df][eg] [ce]!>(![Ac]) ([EG]>[DF]!>)! | ([CEG]4!p! [F,B,F]4)) || %40
!pp!"^legato" ([gb][fa][eg]B [Ac][Ge][ca][Af] | [Ge][DAc][EGB]B, [CE][DF][EG]B) | %42
 ([Ac][Bd][ce][df] [eg][fa][gb][fa] | [eg][Bf][Ge]E [GB][=Ac] (3[=Bd][ce][df] | %44
 [eg]) ([CE][DF][EG] [DF][CE][=A,C][=B,D] |!<(! [CE][DF][EG][FB]!<)!!>(! BGBA-!>)! | AFAG F2) GF | %47
 [Cc] [B,B]2 [A,A] [G,CG]2 [F,CF]2 |!pp! ([E,CE]G,!<(! CD [CE][DF][EG][F=A])!<)! | %49
!f! [B,DB]4 ([_A,C][G,B,][F,A,][A,C]) | (E2 FG [C=A][D=B] c2) | %51
 (_B2!<(! [Ge][Bg] a[db]!<)![ec'][ca]) | ([eg][Bfb] b=a"^poco rit" [db][DB][B,G][_A,F]) | %53
!pp! (E2 [DF][EG] [DF][CE][A,C][B,D] | %54
!<(! [B,E][A,DF][G,EG][B,FB]!<)!!>(! [B,B][G,G][B,B][A,A]-!>)! | [A,A][F,F])[A,A][G,G] F2 GF | %56
 [Cc]"_colla voce" [Dd]2 [A,A]!>(! [G,CG]2!>)! [F,CF]2 | [E,CE]4 !fermata!g4 |] %58
V:3
 ([CE]2 [DF][EG] [CE][A,C][K:bass][E,G,]>[D,F,]) | ([C,E,G,]4 [D,,B,,]4) || E,6 F,2 | %3
 E,3 D, C,D, E,2 | E,2 C,D, E,2 F,,2 | C,D,E,C, A,,2 B,,2 | [C,,G,,]4 [C,,G,,]2 E,F, | %7
 G,,F,, E,,D,, C,,4 | B,,,4 A,,4 | E,2 F,,2 E,,2 D,,2 | %10
 (C,,2 [E,,C,][G,,D,] [C,E,][D,F,][E,G,][F,=A,]) | !arpeggio![G,,D,B,]2 z2 [F,,C,A,]2 z2 | %12
 [C,,G,,E,] z [D,,D,][E,,E,] [G,,D,]2 [C,E,]2 | !arpeggio![E,,B,,G,]2 z2 [A,,E,]2 z2 | %14
 [C,,C,][D,,D,] [F,,F,]2 [B,,,B,,]2 B,,,2 |!pp! [C,,G,,]4 [C,,G,,]2 E,F, | G,,F,, E,,D,, C,,4 | %17
 B,,,4 E,2 C,D, | (G,,2 F,,2 E,,2 D,,2) | %19
 ([C,,G,,E,]2[K:treble] [DF][EG] [CE][A,C][K:bass] [E,G,]>[D,F,] | (([C,E,G,]4 [D,,B,,]4))) || %21
 E,6 F,2 | E,3 D, C,D, E,2 | E,2 C,D, E,2 F,,2 | C,D,E,C, A,,2 B,,2 | [C,,G,,]4 [C,,G,,]2 E,F, | %26
 G,,F,, E,,D,, C,,4 | B,,,4 E,2 C,D, | G,,2 F,,2 E,,2 D,,2 | %29
!<(! (C,,2 [E,,C,][G,,D,] [C,E,][D,F,][E,G,][F,=A,])!<)! | !arpeggio![G,,D,B,]2 z2 [F,,C,A,]2 z2 | %31
 [C,,G,,E,] z [D,,D,][E,,E,] [G,,D,]2 [C,E,]2 | !arpeggio![E,,B,,G,]2 z2 [A,,E,]2 z2 | %33
 [C,,C,][D,,D,] [F,,F,]2 [B,,,B,,]2 B,,,2 | [C,,G,,]4 [C,,G,,]2 E,F, | G,,F,, E,,D,, C,,4 | %36
 B,,,4 E,2 C,D, | (G,,2 F,,2 E,,2 D,,2) | %38
 [C,,G,,E,]2[K:treble] [DF][EG] [CE][A,C][K:bass] ([E,G,]>[D,F,] | ([C,E,G,]4 [D,,B,,]4)) || %40
 [E,,B,,]4 [E,,B,,]4- | [E,,B,,]4 [E,,B,,]4- | [E,,B,,]4 (B,,2 C,D,) | %43
 [E,,B,,E,]4 [E,,B,,]2 [D,,G,,]2 | [C,,G,,]4 [C,,G,,]4- | [C,,G,,]3 D,, [C,,C,]4 | %46
 [B,,,B,,]4 A,,4 | [G,,E,]2 F,,2 E,,2 D,,2 | C,,G,, [E,,C,][G,,D,] [C,E,][D,F,][E,G,][F,=A,] | %49
 G,4 [F,,F,]4 | C,,2 D,,E,, G,,2 C,,2 | E,,4 [A,,E,C]4 | %52
 [C,,C,][D,,D,] [F,,F,]2!>(! [B,,,B,,]2!>)! B,,,2 | [C,,G,,]4 [C,,G,,]2 E,F, | G,,F,,E,,D,, C,,4 | %55
 B,,,4 (C,E,C,D,) | G,,2 F,,2 E,,2 D,,2 | C,,8 |] %58
V:4
 x8 | x8 || x6 A,2 | x4 EFED | C4- CB,-B,A, | G,2 C2 F,2 B,A, | x8 | z4 E4 | E4 [Cc-]4 | E2 C2 x4 | %10
 x8 | x4 D2 z2 | x8 | x8 | x2 [CF]2 x4 | x8 | x4 E4 | E4 [Cc]4- | %18
 ([Cc]"_colla voce"!>(![B,B]) x2!>)! x4 | x8 | x8 || x6 A,2 | x4 EFED | C4- CB,- B,A, | %24
 G,2 C2 F,2 B,A, | x8 | x4 E4 | E4 [Cc]4- | E2 C2 x4 | x8 | x4 D2 z2 | x8 | x8 | x2 [CF]2 x4 | x8 | %35
 x4 E4 | E4 [Cc]4- | [Cc][B,B] x6 | x8 | x8 || e2 x6 | x8 | x8 | x8 | x8 | x4 E4 | E4 [Cc]4- | %47
 E2!>(! C2 x2!>)! x2 | x8 | x8 | C4 x2 EF | GE x6 | x2 [cf]2 x4 | G,C x6 | x4 E4 | E4 [Cc]4- | %56
 E2 C2 x4 | x4 [c'e'g']4 |] %58
V:5
 x6[K:bass] x2 | x8 || E,,8 | E,,8 | A,,4 G,,2 x2 | x8 | x6 A,,2 | x8 | x4 E,2 C,D, | G,,2 x6 | %10
 x8 | x8 | x8 | x8 | x8 | x6 A,,2 | x8 | x4 A,,4 | E,2 x6 | x2[K:treble] x4[K:bass] x2 | x8 || %21
 E,,8 | E,,8 | A,,4 G,,2 x2 | x8 | x6 A,,2 | x8 | x4 A,,4 | x8 | x8 | x8 | x8 | x8 | x8 | x6 A,,2 | %35
 x8 | x4 A,,4 | E,2 x6 | x2[K:treble] x4[K:bass] x2 | x8 || x8 | x8 | x4 E,,4 | x8 | x8 | x8 | %46
 x4 C,E,C,D, | x8 | x8 | x8 | x8 | x8 | x8 | x6 A,,2 | x8 | x4 A,,4 | E,2 x6 | %57
 z4 !fermata![G,CEG]4 |] %58

